static/images/brands/twitter-icon.svg

<svg width="26" height="25" viewBox="0 0 26 25" fill="none" xmlns="http://www.w3.org/2000/svg">
<path d="M22.7834 6.47803C22.7984 6.73842 22.7984 6.9988 22.7984 7.26158C22.7984 15.2687 17.7146 24.5033 8.41873 24.5033V24.4985C5.6727 24.5033 2.98371 23.5602 0.671997 21.7819C1.07129 21.8395 1.47259 21.8683 1.87489 21.8695C4.15057 21.8719 6.36121 20.9563 8.15153 19.2704C5.98893 19.2212 4.09253 17.5305 3.43004 15.0623C4.1876 15.2375 4.96818 15.2015 5.71173 14.9579C3.35398 14.3867 1.65773 11.9029 1.65773 9.01827C1.65773 8.99187 1.65773 8.96668 1.65773 8.94148C2.36025 9.41065 3.14683 9.67103 3.95142 9.69983C1.73078 7.92034 1.04627 4.37817 2.38727 1.60874C4.95316 5.3945 8.73897 7.69596 12.803 7.93954C12.3957 5.83487 12.9521 3.62941 14.2651 2.14991C16.3006 -0.144348 19.5019 -0.0267556 21.4153 2.41269C22.5472 2.14511 23.632 1.64714 24.6247 0.941583C24.2474 2.34429 23.4579 3.53582 22.4031 4.29297C23.4048 4.15138 24.3835 3.8298 25.3052 3.33903C24.6267 4.55815 23.7721 5.62009 22.7834 6.47803Z" fill="#1D9BF0"/>
</svg>

<svg width="26" height="25" fill="none" xmlns="http://www.w3.org/2000/svg"><path d="M22.783 6.478c.015.26.015.52.015.784 0 8.007-5.083 17.241-14.38 17.241v-.005c-2.745.005-5.434-.938-7.746-2.716.4.058.8.086 1.203.087 2.276.003 4.486-.913 6.277-2.599-2.163-.049-4.06-1.74-4.722-4.208.758.176 1.538.14 2.282-.104-2.358-.571-4.054-3.055-4.054-5.94v-.077c.702.47 1.489.73 2.293.759-2.22-1.78-2.905-5.322-1.564-8.091 2.566 3.785 6.352 6.087 10.416 6.33-.407-2.104.15-4.31 1.462-5.79 2.036-2.293 5.237-2.176 7.15.264a9.193 9.193 0 003.21-1.471c-.378 1.402-1.167 2.594-2.222 3.351a8.787 8.787 0 002.902-.954 11.632 11.632 0 01-2.522 3.139z" fill="#1D9BF0"/></svg>
